logos/binoculars.svg

<svg id="eogero0w7rr1" xmlns="http://www.w3.org/2000/svg" xmlns:xlink="http://www.w3.org/1999/xlink" viewBox="0 0 499.170000 498.380000" shape-rendering="geometricPrecision" text-rendering="geometricPrecision">
    <style>
        <![CDATA[#eogero0w7rr6_ts {animation: eogero0w7rr6_ts__ts 4000ms linear infinite normal forwards}@keyframes eogero0w7rr6_ts__ts { 0% {transform: translate(249.728516px,255.818359px) scale(1,1)} 42.500000% {transform: translate(249.728516px,255.818359px) scale(1,1);animation-timing-function: cubic-bezier(0.420000,0,0.580000,1)} 47.500000% {transform: translate(249.728516px,255.818359px) scale(1,0.038149);animation-timing-function: cubic-bezier(0.445000,0.050000,0.550000,0.950000)} 52.500000% {transform: translate(249.728516px,255.818359px) scale(1,1.003279);animation-timing-function: cubic-bezier(0.420000,0,0.580000,1)} 57.500000% {transform: translate(249.728516px,255.818359px) scale(1,1.003279);animation-timing-function: cubic-bezier(0.420000,0,0.580000,1)} 65% {transform: translate(249.728516px,255.818359px) scale(1,0.040000);animation-timing-function: cubic-bezier(0.390000,0.575000,0.565000,1)} 70% {transform: translate(249.728516px,255.818359px) scale(1,1)} 100% {transform: translate(249.728516px,255.818359px) scale(1,1)} }]]>
    </style>
    <g id="eogero0w7rr2">
        <path
            id="eogero0w7rr3"
            d="M498.100000,249.400000C498.100000,311.730000,498.100000,374.060000,498.100000,436.390000C498.100000,464.960000,476.550000,491.080000,448.410000,496.430000C444.250000,497.220000,439.950000,497.670000,435.720000,497.670000C311.480000,497.740000,187.240000,497.720000,63,497.720000C32.550000,497.720000,5.960000,474.360000,1.970000,444.050000C1.620000,441.380000,1.380000,438.660000,1.380000,435.970000C1.340000,311.420000,1.350000,186.860000,1.350000,62.310000C1.350000,33.730000,22.910000,7.610000,51.040000,2.270000C55.200000,1.480000,59.500000,1.030000,63.730000,1.030000C188.080000,0.970000,312.420000,0.980000,436.770000,0.980000C465.340000,0.980000,491.500000,22.560000,496.810000,50.670000C497.600000,54.830000,498.050000,59.130000,498.050000,63.360000C498.120000,125.370000,498.100000,187.390000,498.100000,249.400000Z"
            fill="#ffcb28"
            stroke="none"
            stroke-width="1"
        />
    </g>
    <g id="eogero0w7rr4" transform="matrix(1 0 0 1 -1.05468750000000 4)">
        <path
            id="eogero0w7rr5"
            d="M485.730000,225.440000C481.050000,204.980000,470.800000,187.240000,454.800000,173.300000C444.320000,164.180000,433.560000,155.380000,422.700000,146.710000C410.290000,136.810000,398.100000,126.510000,384.960000,117.660000C365.370000,104.470000,343.570000,100.500000,320.420000,106.310000C305.660000,110.010000,292.830000,117.330000,282.120000,128.140000C279.920000,130.360000,278.300000,130.860000,275.350000,129.350000C258.930000,120.990000,242.330000,120.970000,225.960000,129.420000C222.590000,131.160000,220.900000,130.440000,218.510000,127.980000C204.190000,113.250000,186.500000,105.390000,166.150000,104.020000C146.420000,102.690000,128.370000,107.920000,112.720000,120.270000C91.450000,137.060000,69.850000,153.460000,49.220000,171.010000C27.410000,189.580000,14.780000,213.580000,12.740000,242.420000C12.060000,251.970000,12.250000,261.740000,13.430000,271.240000C15.350000,286.710000,21.590000,300.830000,30.330000,313.670000C51.480000,344.740000,81.090000,361.250000,118.560000,362.970000C139.710000,363.940000,159.800000,359.190000,178.040000,348.100000C196.960000,336.600000,211.690000,321.030000,221.810000,301.300000C223.180000,298.630000,224.230000,298.470000,226.710000,299.700000C233.970000,303.320000,241.770000,305.540000,249.840000,305.730000C258.570000,305.930000,266.900000,303.340000,274.730000,299.560000C277.240000,298.350000,278.090000,299.110000,279.310000,301.120000C282.780000,306.880000,286.090000,312.800000,290.140000,318.150000C312.460000,347.600000,342.300000,362.400000,379.200000,363.040000C381.680000,363.040000,384.180000,363.210000,386.650000,363.010000C409.860000,361.110000,430.820000,353.270000,448.560000,338.120000C483.620000,308.160000,495.990000,270.280000,485.730000,225.440000ZM250.580000,271.930000C238.490000,272.660000,230.850000,261.420000,230.910000,252.800000C230.990000,242.320000,240.010000,233.200000,250.450000,233.210000C261.530000,233.220000,269.930000,241.580000,270.100000,252.410000C270.240000,261.310000,262.430000,272.850000,250.580000,271.930000Z"
            fill="#01507b"
            stroke="none"
            stroke-width="1"
        />
    </g>
    <g id="eogero0w7rr6_ts" transform="translate(249.728516,255.818359) scale(1,1)">
        <g id="eogero0w7rr6" transform="translate(-254.199219,-251.818359)">
            <g id="eogero0w7rr7">
                <path
                    id="eogero0w7rr8"
                    d="M454.660000,251.430000C455.450000,294.050000,419.350000,323.490000,384.160000,324.280000C340.970000,325.250000,309.710000,288.730000,309.690000,251.950000C309.670000,211.080000,345.200000,179.260000,381.860000,179.300000C423.160000,179.360000,455.940000,214.510000,454.660000,251.430000Z"
                    fill="#99d6f7"
                    stroke="none"
                    stroke-width="1"
                />
                <path
                    id="eogero0w7rr9"
                    d="M53.760000,252.440000C52.050000,211.860000,87.640000,179.050000,126.600000,179.380000C165.670000,179.710000,200.120000,212.690000,198.580000,254.540000C197.260000,290.340000,167.800000,325.150000,123.350000,324.320000C87.560000,323.660000,52.180000,290.860000,53.760000,252.440000Z"
                    fill="#99d6f7"
                    stroke="none"
                    stroke-width="1"
                />
                <path
                    id="eogero0w7rr10"
                    d="M329.360000,249.660000C330.730000,234.440000,337.340000,222.450000,348.290000,212.600000C357.950000,203.920000,369.270000,199.800000,382.280000,199.910000C387.160000,199.950000,390.420000,203.970000,390.860000,207.450000C391.370000,211.450000,388.440000,215.590000,384.060000,216.700000C379.750000,217.780000,375.240000,218.230000,371.070000,219.690000C356.150000,224.880000,349.210000,236.270000,347.460000,251.340000C346.980000,255.460000,345.110000,258.550000,341.330000,260.110000C337.760000,261.590000,334.410000,260.280000,332.330000,257.380000C330.780000,255.210000,330.310000,252.270000,329.360000,249.660000Z"
                    fill="rgb(255,255,255)"
                    stroke="none"
                    stroke-width="1"
                />
                <path
                    id="eogero0w7rr11"
                    d="M74.160000,248.070000C75.140000,225.330000,94.440000,203.760000,117.910000,200.330000C120.350000,199.970000,122.870000,200,125.350000,200C130.700000,200.010000,135,203.780000,135.050000,208.390000C135.100000,213,130.830000,216.930000,125.640000,217.360000C115.710000,218.190000,106.970000,221.660000,100.170000,229.250000C94.640000,235.420000,92.400000,242.860000,91.420000,250.900000C91.150000,253.160000,90.350000,255.620000,89.020000,257.420000C86.950000,260.210000,83.780000,261.570000,80.300000,260.170000C76.840000,258.770000,74.240000,256.400000,74.160000,252.240000C74.140000,250.850000,74.160000,249.460000,74.160000,248.070000Z"
                    fill="rgb(255,255,255)"
                    stroke="none"
                    stroke-width="1"
                />
            </g>
        </g>
    </g>
</svg>

<svg id="binoculars" xmlns="http://www.w3.org/2000/svg" viewBox="0 0 499.17 498.38" width="500" height="500" shape-rendering="geometricPrecision" text-rendering="geometricPrecision">
  <style>
    @keyframes lens_animation__ts{0%,70%,to{transform:translate(249.728516px,255.818359px) scale(1,1)}42.5%{transform:translate(249.728516px,255.818359px) scale(1,1);animation-timing-function:cubic-bezier(.42,0,.58,1)}47.5%{transform:translate(249.728516px,255.818359px) scale(1,.038149);animation-timing-function:cubic-bezier(.445,.05,.55,.95)}52.5%,57.5%{transform:translate(249.728516px,255.818359px) scale(1,1.003279);animation-timing-function:cubic-bezier(.42,0,.58,1)}65%{transform:translate(249.728516px,255.818359px) scale(1,.04);animation-timing-function:cubic-bezier(.39,.575,.565,1)}}#lens_animation{animation:lens_animation__ts 4000ms linear infinite normal forwards}
  </style>
  <g id="background">
    <path id="square" d="M498.1 249.4v186.99c0 28.57-21.55 54.69-49.69 60.04-4.16.79-8.46 1.24-12.69 1.24-124.24.07-248.48.05-372.72.05-30.45 0-57.04-23.36-61.03-53.67-.35-2.67-.59-5.39-.59-8.08-.04-124.55-.03-249.11-.03-373.66 0-28.58 21.56-54.7 49.69-60.04 4.16-.79 8.46-1.24 12.69-1.24C188.08.97 312.42.98 436.77.98c28.57 0 54.73 21.58 60.04 49.69.79 4.16 1.24 8.46 1.24 12.69.07 62.01.05 124.03.05 186.04z" fill="#D52727" stroke="none" stroke-width="1"/>
  </g>
  <g id="binoculars_group" transform="translate(-1.055 4)">
    <path id="binoculars_case" d="M485.73 225.44c-4.68-20.46-14.93-38.2-30.93-52.14-10.48-9.12-21.24-17.92-32.1-26.59-12.41-9.9-24.6-20.2-37.74-29.05-19.59-13.19-41.39-17.16-64.54-11.35-14.76 3.7-27.59 11.02-38.3 21.83-2.2 2.22-3.82 2.72-6.77 1.21-16.42-8.36-33.02-8.38-49.39.07-3.37 1.74-5.06 1.02-7.45-1.44-14.32-14.73-32.01-22.59-52.36-23.96-19.73-1.33-37.78 3.9-53.43 16.25-21.27 16.79-42.87 33.19-63.5 50.74-21.81 18.57-34.44 42.57-36.48 71.41-.68 9.55-.49 19.32.69 28.82 1.92 15.47 8.16 29.59 16.9 42.43 21.15 31.07 50.76 47.58 88.23 49.3 21.15.97 41.24-3.78 59.48-14.87 18.92-11.5 33.65-27.07 43.77-46.8 1.37-2.67 2.42-2.83 4.9-1.6 7.26 3.62 15.06 5.84 23.13 6.03 8.73.2 17.06-2.39 24.89-6.17 2.51-1.21 3.36-.45 4.58 1.56 3.47 5.76 6.78 11.68 10.83 17.03 22.32 29.45 52.16 44.25 89.06 44.89 2.48 0 4.98.17 7.45-.03 23.21-1.9 44.17-9.74 61.91-24.89 35.06-29.96 47.43-67.84 37.17-112.68zm-235.15 46.49c-12.09.73-19.73-10.51-19.67-19.13.08-10.48 9.1-19.6 19.54-19.59 11.08.01 19.48 8.37 19.65 19.2.14 8.9-7.67 20.44-19.52 19.52z" fill="#000" stroke="none" stroke-width="1"/>
  </g>
  <g id="lens_animation" transform="translate(249.729 255.818)">
    <g id="lens_top" transform="translate(-254.2 -251.818)">
      <g id="lens_group" stroke="none" stroke-width="1">
        <path id="right_lens" d="M454.66 251.43c.79 42.62-35.31 72.06-70.5 72.85-43.19.97-74.45-35.55-74.47-72.33-.02-40.87 35.51-72.69 72.17-72.65 41.3.06 74.08 35.21 72.8 72.13z" fill="#FE8A30"/>
        <path id="left_lens" d="M53.76 252.44c-1.71-40.58 33.88-73.39 72.84-73.06 39.07.33 73.52 33.31 71.98 75.16-1.32 35.8-30.78 70.61-75.23 69.78-35.79-.66-71.17-33.46-69.59-71.88z" fill="#FE8A30"/>
        <path id="right_lens_shine" d="M329.36 249.66c1.37-15.22 7.98-27.21 18.93-37.06 9.66-8.68 20.98-12.8 33.99-12.69 4.88.04 8.14 4.06 8.58 7.54.51 4-2.42 8.14-6.8 9.25-4.31 1.08-8.82 1.53-12.99 2.99-14.92 5.19-21.86 16.58-23.61 31.65-.48 4.12-2.35 7.21-6.13 8.77-3.57 1.48-6.92.17-9-2.73-1.55-2.17-2.02-5.11-2.97-7.72z" fill="#FFF"/>
        <path id="left_lens_shine" d="M74.16 248.07c.98-22.74 20.28-44.31 43.75-47.74 2.44-.36 4.96-.33 7.44-.33 5.35.01 9.65 3.78 9.7 8.39.05 4.61-4.22 8.54-9.41 8.97-9.93.83-18.67 4.3-25.47 11.89-5.53 6.17-7.77 13.61-8.75 21.65-.27 2.26-1.07 4.72-2.4 6.52-2.07 2.79-5.24 4.15-8.72 2.75-3.46-1.4-6.06-3.77-6.14-7.93-.02-1.39 0-2.78 0-4.17z" fill="#FFF"/>
      </g>
    </g>
  </g>
</svg>
